build/img/landings/smm-strategy/smm-strategy-banner-decor.svg

<svg width="1563" height="1489" fill="none" xmlns="http://www.w3.org/2000/svg"><g clip-path="url(#clip0)"><g clip-path="url(#clip1)"><path d="M519.462 869.187l94.119-54.339c17.327-10.004 39.483-4.068 49.487 13.259l19.924 34.511c10.004 17.326 32.159 23.263 49.486 13.259 17.327-10.003 23.264-32.159 13.26-49.486l-92.377-160.002c-10.004-17.327-4.067-39.483 13.26-49.486 17.326-10.004 39.482-4.067 49.486 13.259l144.905 250.984c10.004 17.327 32.16 23.264 49.487 13.26 17.326-10.003 23.263-32.159 13.259-49.486L724.513 499.817c-10.004-17.327-4.067-39.482 13.26-49.486 17.327-10.004 39.482-4.067 49.486 13.26l108.679 188.238c10.004 17.326 32.16 23.263 49.487 13.259l34.51-19.924" stroke="#7B61FF" stroke-width="10"/><path d="M469.266 898.168l62.746-36.226" stroke="url(#paint0_linear)" stroke-width="10"/><path d="M1372.68 753.054l250.99-144.906c17.32-10.004 23.26-32.159 13.26-49.486v0c-10.01-17.327-32.16-23.264-49.49-13.26l-156.86 90.566c-17.33 10.004-39.49 4.067-49.49-13.26v0c-10-17.327-4.07-39.482 13.26-49.486l62.75-36.226c17.32-10.004 23.26-32.16 13.26-49.487v0c-10.01-17.326-32.16-23.263-49.49-13.259L1264 564.816" stroke="#7B61FF" stroke-width="10"/><path d="M1372.68 753.054l62.75-36.227" stroke="url(#paint1_linear)" stroke-width="10"/><path fill-rule="evenodd" clip-rule="evenodd" d="M1328.67 847.335c9.67 2.589 19.6-3.145 22.19-12.808l17.14-63.989c2.59-9.663-3.14-19.595-12.8-22.184l-63.99-17.146c-9.67-2.589-19.6 3.146-22.19 12.808l-17.14 63.989c-2.59 9.663 3.14 19.595 12.8 22.184l63.99 17.146zm-10.03-21.26l18.83-10.868-12.68-21.961 21.96-12.679-10.87-18.824-21.96 12.679-12.68-21.961-18.82 10.868 12.68 21.961-21.96 12.679 10.86 18.824 21.96-12.679 12.68 21.961z" fill="#7B61FF"/><path d="M1493.84 310.814l-38.04-65.883c-10-17.327-32.16-23.263-49.49-13.26v0c-17.32 10.004-23.26 32.16-13.26 49.486l36.23 62.746c10 17.327 4.07 39.483-13.26 49.487v0c-17.33 10.003-39.48 4.067-49.49-13.26l-128.6-222.748" stroke="#7B61FF" stroke-width="10"/><path d="M1239.74 160.52l36.23 62.746" stroke="url(#paint2_linear)" stroke-width="10"/><path d="M1492.03 307.678l-36.23-62.746" stroke="url(#paint3_linear)" stroke-width="10"/><path stroke="#7B61FF" stroke-width="14" d="M1526.71 367.746l-45.263-12.128 12.128-45.264 45.263 12.129z"/><path fill="#7B61FF" d="M1249.89 141.222l-6.75 25.194-25.195-6.75 6.75-25.195zm-33.59-9.002l-6.75 25.194-25.195-6.75 6.75-25.195zm42.6-24.591l-6.75 25.194-25.195-6.75 6.75-25.195zm-33.6-9.001l-6.75 25.194-25.195-6.75 6.75-25.195z"/><path d="M1129.71 477.119l-37.13-64.315c-10-17.327-4.06-39.483 13.26-49.486l94.12-54.34c17.33-10.004 23.26-32.159 13.26-49.486v0c-10-17.327-32.16-23.264-49.49-13.26L912.751 391.138c-17.327 10.003-39.483 4.067-49.486-13.26v0c-10.004-17.327-4.067-39.483 13.259-49.486l103.531-59.774" stroke="#7B61FF" stroke-width="10"/><path d="M976.918 270.43l-62.746 36.226" stroke="url(#paint4_linear)" stroke-width="10"/><path d="M1026.47 249.165c2.99-4.895-.63-11.156-6.36-11.017l-60.705 1.473c-6.349.154-9.441 7.821-4.976 12.337l18.465 18.675a7.25 7.25 0 011.836 3.179l6.941 25.329c1.678 6.126 9.864 7.281 13.172 1.859l31.627-51.835z" fill="#7B61FF"/><g filter="url(#filter0_d)"><rect x="903.121" y="521.252" width="290" height="290" rx="40" transform="rotate(-30 903.121 521.252)" fill="#333"/><path d="M1020.87 637.846l-.78.448c-3.07 1.68-.45 6.374 2.55 4.735l.77-.448c3.15-1.72.53-6.415-2.54-4.735zm2.83 10.773c-3.07 1.68-.45 6.375 2.55 4.735 3.07-1.68.53-6.415-2.55-4.735zm5.16-52.617l-.21.122c-1.88.806-3.36 1.661-4.74 2.364-2.58 1.395-4.6 2.464-6.79 1.757-2.61-.938-4.04-4.062-6.57-10.403l-1.03-2.601c-4.82-12.077-4.67-13.946 7.86-19.768 1.09-.54 2.44-.001 2.94 1.027.54 1.098 0 2.444-1.03 2.943-4.43 2.09-7.59 3.629-8.16 5.086-.49 1.416.67 4.41 2.55 8.967l1.03 2.601c.82 2.066 2.89 7.45 3.97 7.859.41.049 1.93-.736 3.2-1.468a52.637 52.637 0 015.03-2.527c1.14-.47 2.44-.001 2.91 1.138.47 1.139.03 2.333-.96 2.903zm171.57-33.243c-1.06.611-2.4.253-2.97-.734-.68-1.017-.32-2.352.7-3.033 2.21-1.373 4.26-2.554 6.16-3.653 4.87-2.809 8.39-4.844 8.81-7.058.3-1.587-.82-3.854-3.42-7.054l-1.77-2.264c-6.64-8.393-6.64-8.393-20.46.061l-.08.04c-1.05.611-2.39.253-2.96-.734-.61-1.057-.25-2.392.7-3.032 15.87-9.635 17.81-9.532 26.18 1.054l1.73 2.194c3.55 4.347 4.88 7.623 4.25 10.615-.77 4.205-5.07 6.688-10.92 10.067-1.76 1.018-3.74 2.158-5.95 3.531zm-157.5 54.357c-8.07 13.69-4.11 29.83 8.93 38.75 2.43 1.605 4.68-2.323 2.25-3.928-11.03-7.546-14-21.156-7.25-32.577 1.46-2.532-2.47-4.776-3.93-2.245zm85.84-50.967c-2.69-1.079-3.88 3.37-1.16 4.337 12.14 4.743 18.68 16.57 16.27 29.336-.52 2.84 3.86 4.073 4.34 1.162 2.91-15.313-4.88-29.144-19.45-34.835zm-49.97 52.352c-8.05 4.46-16.21 8.889-24.26 13.348-2.58 1.395-.3 5.344 2.28 3.949 8.05-4.459 16.21-8.889 24.26-13.348 2.58-1.395.3-5.344-2.28-3.949zm51.89-27.699c-14.04 7.445-28.04 14.778-42.08 22.223-2.58 1.395-.34 5.273 2.28 3.948 14.04-7.444 28.04-14.778 42.08-22.223 2.58-1.395.3-5.343-2.28-3.948zm29.45-40.981c1.56 13.111 3.07 26.152 4.55 39.304.32 2.827 4.88 2.917 4.53.021a6207.553 6207.553 0 01-4.55-39.305c-.32-2.826-4.81-2.958-4.53-.02zm-68.7 3.285c-1.89 11.056-2.79 22.199-2.81 33.399-.01 2.919 4.51 2.939 4.52.02-.03-10.795.89-21.575 2.7-32.298.45-2.799-3.93-4.032-4.41-1.121zm-22.14 2.532c-10.95 5.946-21.86 11.963-32.74 17.869-2.58 1.395-.3 5.344 2.28 3.949 10.95-5.947 21.86-11.964 32.74-17.869 2.47-1.425.19-5.374-2.28-3.949zm1.38 27.31c-22.95 14.473-46.46 28.141-70.37 41.103-2.582 1.395-.3 5.344 2.28 3.949 23.91-12.963 47.35-26.589 70.37-41.103 2.39-1.566.15-5.444-2.28-3.949zm78.84-46.643c-13.67 8.08-27.27 16.118-40.93 24.198-2.54 1.465-.26 5.414 2.28 3.948 13.66-8.079 27.26-16.118 40.93-24.197 2.5-1.536.22-5.485-2.28-3.949zm9.72-30.713l-44.56 24.597c-2.58 1.395-.3 5.344 2.28 3.948l44.56-24.597c2.54-1.465.3-5.343-2.28-3.948z" fill="#FDD05B"/></g><path d="M1075.79 819.888l-43.94-121.035-68.442 106.062 58.722-14.331 53.66 29.304z" fill="#464646" stroke="#000" stroke-width="10"/></g></g><defs><linearGradient id="paint0_linear" x1="532.012" y1="861.942" x2="469.266" y2="898.168" gradientUnits="userSpaceOnUse"><stop stop-color="#7B61FF"/><stop offset="1"/></linearGradient><linearGradient id="paint1_linear" x1="1435.43" y1="716.827" x2="1372.68" y2="753.054" gradientUnits="userSpaceOnUse"><stop stop-color="#7B61FF"/><stop offset="1"/></linearGradient><linearGradient id="paint2_linear" x1="1275.97" y1="223.266" x2="1239.74" y2="160.52" gradientUnits="userSpaceOnUse"><stop stop-color="#7B61FF"/><stop offset="1"/></linearGradient><linearGradient id="paint3_linear" x1="1455.8" y1="244.932" x2="1492.03" y2="307.678" gradientUnits="userSpaceOnUse"><stop stop-color="#7B61FF"/><stop offset="1"/></linearGradient><linearGradient id="paint4_linear" x1="914.172" y1="306.656" x2="976.918" y2="270.43" gradientUnits="userSpaceOnUse"><stop stop-color="#7B61FF"/><stop offset="1"/></linearGradient><clipPath id="clip0"><path fill="#fff" transform="rotate(-30 1225.979 328.5)" d="M0 0h1920v960H0z"/></clipPath><clipPath id="clip1"><path fill="#fff" transform="rotate(-30 1225.979 328.5)" d="M0 0h1920v960H0z"/></clipPath><filter id="filter0_d" x="794.442" y="267.573" width="613.506" height="613.506" filterUnits="userSpaceOnUse" color-interpolation-filters="sRGB"><feFlood flood-opacity="0" result="BackgroundImageFix"/><feColorMatrix in="SourceAlpha" values="0 0 0 0 0 0 0 0 0 0 0 0 0 0 0 0 0 0 127 0"/><feOffset/><feGaussianBlur stdDeviation="54.34"/><feColorMatrix values="0 0 0 0 0.0196078 0 0 0 0 0.0196078 0 0 0 0 0.0196078 0 0 0 0.8 0"/><feBlend in2="BackgroundImageFix" result="effect1_dropShadow"/><feBlend in="SourceGraphic" in2="effect1_dropShadow" result="shape"/></filter></defs></svg>

<svg width="1563" height="1489" viewBox="0 0 1563 1489" fill="none" xmlns="http://www.w3.org/2000/svg">
<g clip-path="url(#clip0)">
<g clip-path="url(#clip1)">
<path d="M519.462 869.187L613.581 814.848C630.908 804.844 653.064 810.78 663.068 828.107L682.992 862.618C692.996 879.944 715.151 885.881 732.478 875.877C749.805 865.874 755.742 843.718 745.738 826.391L653.361 666.389C643.357 649.062 649.294 626.906 666.621 616.903C683.947 606.899 706.103 612.836 716.107 630.162L861.012 881.146C871.016 898.473 893.172 904.41 910.499 894.406C927.825 884.403 933.762 862.247 923.758 844.92L724.513 499.817C714.509 482.49 720.446 460.335 737.773 450.331C755.1 440.327 777.255 446.264 787.259 463.591L895.938 651.829C905.942 669.155 928.098 675.092 945.425 665.088L979.935 645.164" stroke="#7B61FF" stroke-width="10"/>
<path d="M469.266 898.168L532.012 861.942" stroke="url(#paint0_linear)" stroke-width="10"/>
<path d="M1372.68 753.054L1623.67 608.148C1640.99 598.144 1646.93 575.989 1636.93 558.662V558.662C1626.92 541.335 1604.77 535.398 1587.44 545.402L1430.58 635.968C1413.25 645.972 1391.09 640.035 1381.09 622.708V622.708C1371.09 605.381 1377.02 583.226 1394.35 573.222L1457.1 536.996C1474.42 526.992 1480.36 504.836 1470.36 487.509V487.509C1460.35 470.183 1438.2 464.246 1420.87 474.25L1264 564.816" stroke="#7B61FF" stroke-width="10"/>
<path d="M1372.68 753.054L1435.43 716.827" stroke="url(#paint1_linear)" stroke-width="10"/>
<path fill-rule="evenodd" clip-rule="evenodd" d="M1328.67 847.335C1338.34 849.924 1348.27 844.19 1350.86 834.527L1368 770.538C1370.59 760.875 1364.86 750.943 1355.2 748.354L1291.21 731.208C1281.54 728.619 1271.61 734.354 1269.02 744.016L1251.88 808.005C1249.29 817.668 1255.02 827.6 1264.68 830.189L1328.67 847.335ZM1318.64 826.075L1337.47 815.207L1324.79 793.246L1346.75 780.567L1335.88 761.743L1313.92 774.422L1301.24 752.461L1282.42 763.329L1295.1 785.29L1273.14 797.969L1284 816.793L1305.96 804.114L1318.64 826.075Z" fill="#7B61FF"/>
<path d="M1493.84 310.814L1455.8 244.931C1445.8 227.604 1423.64 221.668 1406.31 231.671V231.671C1388.99 241.675 1383.05 263.831 1393.05 281.157L1429.28 343.903C1439.28 361.23 1433.35 383.386 1416.02 393.39V393.39C1398.69 403.393 1376.54 397.457 1366.53 380.13L1237.93 157.382" stroke="#7B61FF" stroke-width="10"/>
<path d="M1239.74 160.52L1275.97 223.266" stroke="url(#paint2_linear)" stroke-width="10"/>
<path d="M1492.03 307.678L1455.8 244.932" stroke="url(#paint3_linear)" stroke-width="10"/>
<rect x="1526.71" y="367.746" width="46.8604" height="46.8604" transform="rotate(-165 1526.71 367.746)" stroke="#7B61FF" stroke-width="14"/>
<rect x="1249.89" y="141.222" width="26.083" height="26.083" transform="rotate(105 1249.89 141.222)" fill="#7B61FF"/>
<rect x="1216.3" y="132.22" width="26.083" height="26.083" transform="rotate(105 1216.3 132.22)" fill="#7B61FF"/>
<rect x="1258.9" y="107.629" width="26.083" height="26.083" transform="rotate(105 1258.9 107.629)" fill="#7B61FF"/>
<rect x="1225.3" y="98.6279" width="26.083" height="26.083" transform="rotate(105 1225.3 98.6279)" fill="#7B61FF"/>
<path d="M1129.71 477.119L1092.58 412.804C1082.58 395.477 1088.52 373.321 1105.84 363.318L1199.96 308.978C1217.29 298.974 1223.22 276.819 1213.22 259.492V259.492C1203.22 242.165 1181.06 236.228 1163.73 246.232L912.751 391.138C895.424 401.141 873.268 395.205 863.265 377.878V377.878C853.261 360.551 859.198 338.395 876.524 328.392L980.055 268.618" stroke="#7B61FF" stroke-width="10"/>
<path d="M976.918 270.43L914.172 306.656" stroke="url(#paint4_linear)" stroke-width="10"/>
<path d="M1026.47 249.165C1029.46 244.27 1025.84 238.009 1020.11 238.148L959.405 239.621C953.056 239.775 949.964 247.442 954.429 251.958L972.894 270.633C973.769 271.518 974.401 272.613 974.73 273.812L981.671 299.141C983.349 305.267 991.535 306.422 994.843 301L1026.47 249.165Z" fill="#7B61FF"/>
<g filter="url(#filter0_d)">
<rect x="903.121" y="521.252" width="290" height="290" rx="40" transform="rotate(-30 903.121 521.252)" fill="#333333"/>
<path d="M1020.87 637.846L1020.09 638.294C1017.02 639.974 1019.64 644.668 1022.64 643.029L1023.41 642.581C1026.56 640.861 1023.94 636.166 1020.87 637.846Z" fill="#FDD05B"/>
<path d="M1023.7 648.619C1020.63 650.299 1023.25 654.994 1026.25 653.354C1029.32 651.674 1026.78 646.939 1023.7 648.619Z" fill="#FDD05B"/>
<path d="M1028.86 596.002C1028.79 596.042 1028.72 596.083 1028.65 596.124C1026.77 596.93 1025.29 597.785 1023.91 598.488C1021.33 599.883 1019.31 600.952 1017.12 600.245C1014.51 599.307 1013.08 596.183 1010.55 589.842L1009.52 587.241C1004.7 575.164 1004.85 573.295 1017.38 567.473C1018.47 566.933 1019.82 567.472 1020.32 568.5C1020.86 569.598 1020.32 570.944 1019.29 571.443C1014.86 573.533 1011.7 575.072 1011.13 576.529C1010.64 577.945 1011.8 580.939 1013.68 585.496L1014.71 588.097C1015.53 590.163 1017.6 595.547 1018.68 595.956C1019.09 596.005 1020.61 595.22 1021.88 594.488C1023.15 593.755 1024.81 592.889 1026.91 591.961C1028.05 591.491 1029.35 591.96 1029.82 593.099C1030.29 594.238 1029.85 595.432 1028.86 596.002Z" fill="#FDD05B"/>
<path d="M1200.43 562.759C1199.37 563.37 1198.03 563.012 1197.46 562.025C1196.78 561.008 1197.14 559.673 1198.16 558.992C1200.37 557.619 1202.42 556.438 1204.32 555.339C1209.19 552.53 1212.71 550.495 1213.13 548.281C1213.43 546.694 1212.31 544.427 1209.71 541.227L1207.94 538.963C1201.3 530.57 1201.3 530.57 1187.48 539.024C1187.48 539.024 1187.48 539.024 1187.4 539.064C1186.35 539.675 1185.01 539.317 1184.44 538.33C1183.83 537.273 1184.19 535.938 1185.14 535.298C1201.01 525.663 1202.95 525.766 1211.32 536.352L1213.05 538.546C1216.6 542.893 1217.93 546.169 1217.3 549.161C1216.53 553.366 1212.23 555.849 1206.38 559.228C1204.62 560.246 1202.64 561.386 1200.43 562.759Z" fill="#FDD05B"/>
<path d="M1042.93 617.116C1034.86 630.806 1038.82 646.946 1051.86 655.866C1054.29 657.471 1056.54 653.543 1054.11 651.938C1043.08 644.392 1040.11 630.782 1046.86 619.361C1048.32 616.829 1044.39 614.585 1042.93 617.116Z" fill="#FDD05B"/>
<path d="M1128.77 566.149C1126.08 565.07 1124.89 569.519 1127.61 570.486C1139.75 575.229 1146.29 587.056 1143.88 599.822C1143.36 602.662 1147.74 603.895 1148.22 600.984C1151.13 585.671 1143.34 571.84 1128.77 566.149Z" fill="#FDD05B"/>
<path d="M1078.8 618.501C1070.75 622.961 1062.59 627.39 1054.54 631.849C1051.96 633.244 1054.24 637.193 1056.82 635.798C1064.87 631.339 1073.03 626.909 1081.08 622.45C1083.66 621.055 1081.38 617.106 1078.8 618.501Z" fill="#FDD05B"/>
<path d="M1130.69 590.802C1116.65 598.247 1102.65 605.58 1088.61 613.025C1086.03 614.42 1088.27 618.298 1090.89 616.973C1104.93 609.529 1118.93 602.195 1132.97 594.75C1135.55 593.355 1133.27 589.407 1130.69 590.802Z" fill="#FDD05B"/>
<path d="M1160.14 549.821C1161.7 562.932 1163.21 575.973 1164.69 589.125C1165.01 591.952 1169.57 592.042 1169.22 589.146C1167.66 576.034 1166.15 562.993 1164.67 549.841C1164.35 547.015 1159.86 546.883 1160.14 549.821Z" fill="#FDD05B"/>
<path d="M1091.44 553.106C1089.55 564.162 1088.65 575.305 1088.63 586.505C1088.62 589.424 1093.14 589.444 1093.15 586.525C1093.12 575.73 1094.04 564.95 1095.85 554.227C1096.3 551.428 1091.92 550.195 1091.44 553.106Z" fill="#FDD05B"/>
<path d="M1069.3 555.638C1058.35 561.584 1047.44 567.601 1036.56 573.507C1033.98 574.902 1036.26 578.851 1038.84 577.456C1049.79 571.509 1060.7 565.492 1071.58 559.587C1074.05 558.162 1071.77 554.213 1069.3 555.638Z" fill="#FDD05B"/>
<path d="M1070.68 582.948C1047.73 597.421 1024.22 611.089 1000.31 624.051C997.728 625.446 1000.01 629.395 1002.59 628C1026.5 615.037 1049.94 601.411 1072.96 586.897C1075.35 585.331 1073.11 581.453 1070.68 582.948Z" fill="#FDD05B"/>
<path d="M1149.52 536.305C1135.85 544.385 1122.25 552.423 1108.59 560.503C1106.05 561.968 1108.33 565.917 1110.87 564.451C1124.53 556.372 1138.13 548.333 1151.8 540.254C1154.3 538.718 1152.02 534.769 1149.52 536.305Z" fill="#FDD05B"/>
<path d="M1159.24 505.592C1144.41 513.777 1129.51 522.003 1114.68 530.189C1112.1 531.584 1114.38 535.533 1116.96 534.137C1131.79 525.952 1146.69 517.726 1161.52 509.54C1164.06 508.075 1161.82 504.197 1159.24 505.592Z" fill="#FDD05B"/>
</g>
<path d="M1075.79 819.888L1031.85 698.853L963.408 804.915L1022.13 790.584L1075.79 819.888Z" fill="#464646" stroke="black" stroke-width="10"/>
</g>
</g>
<defs>
<filter id="filter0_d" x="794.442" y="267.573" width="613.506" height="613.506" filterUnits="userSpaceOnUse" color-interpolation-filters="sRGB">
<feFlood flood-opacity="0" result="BackgroundImageFix"/>
<feColorMatrix in="SourceAlpha" type="matrix" values="0 0 0 0 0 0 0 0 0 0 0 0 0 0 0 0 0 0 127 0"/>
<feOffset/>
<feGaussianBlur stdDeviation="54.3396"/>
<feColorMatrix type="matrix" values="0 0 0 0 0.0196078 0 0 0 0 0.0196078 0 0 0 0 0.0196078 0 0 0 0.8 0"/>
<feBlend mode="normal" in2="BackgroundImageFix" result="effect1_dropShadow"/>
<feBlend mode="normal" in="SourceGraphic" in2="effect1_dropShadow" result="shape"/>
</filter>
<linearGradient id="paint0_linear" x1="532.012" y1="861.942" x2="469.266" y2="898.168" gradientUnits="userSpaceOnUse">
<stop stop-color="#7B61FF"/>
<stop offset="1"/>
</linearGradient>
<linearGradient id="paint1_linear" x1="1435.43" y1="716.827" x2="1372.68" y2="753.054" gradientUnits="userSpaceOnUse">
<stop stop-color="#7B61FF"/>
<stop offset="1"/>
</linearGradient>
<linearGradient id="paint2_linear" x1="1275.97" y1="223.266" x2="1239.74" y2="160.52" gradientUnits="userSpaceOnUse">
<stop stop-color="#7B61FF"/>
<stop offset="1"/>
</linearGradient>
<linearGradient id="paint3_linear" x1="1455.8" y1="244.932" x2="1492.03" y2="307.678" gradientUnits="userSpaceOnUse">
<stop stop-color="#7B61FF"/>
<stop offset="1"/>
</linearGradient>
<linearGradient id="paint4_linear" x1="914.172" y1="306.656" x2="976.918" y2="270.43" gradientUnits="userSpaceOnUse">
<stop stop-color="#7B61FF"/>
<stop offset="1"/>
</linearGradient>
<clipPath id="clip0">
<rect width="1920" height="960" fill="white" transform="translate(0 657) rotate(-30)"/>
</clipPath>
<clipPath id="clip1">
<rect width="1920" height="960" fill="white" transform="translate(0 657) rotate(-30)"/>
</clipPath>
</defs>
</svg>
